X: 846
T: Gittin Bıraktın Beni
C: Emin Ongan
O: Turkey
F: http://compmusic.upf.edu/node/140
N: kurdilihicazkar--sarki--duyek--gittin_biraktin--emin_ongan
N: makam= kurdilihicazkar
N: form= sarki
N: usul= duyek = 8/4
M: 8/4
L: 1/16
K: C _B _e _A 
Q: 1/4=120
%%MIDI tuningsystem comma53
z2 g6 g2 (3gfe g4  | z2 a4 c'a g8  | \
w:   |   | 
z2 (3c'bc' (3bab (3aga (3gfg (3f=eg f4  | 
w:   | 
z2 (3aga (3gfg (3fef (3edg (3edc d4  | \
w:   | 
z2 g4 d2 fd ec B4  | 
w:   | 
z2 e2 d2 A2 B2 cA G4  | z2 g6 g2 (3gfe g4  | \
w:   |   | 
z2 a4 c'a g8  | z2 (3c'bc' (3bab (3aga (3gfg (3f=eg f4  | 
w:   |   | 
z2 (3aga (3gfg (3fef (3edg (3edc d4  | \
w:   | 
z2 g4 d2 fd ec B4  | 
w:   | 
z2 e2 d2 A2 B2 cA G4  | z2 g6 g8  | f2 c'6 g8  | \
w:   |  Git tin   |  bı rak tın   | 
f2 c'4 ac' g8  | g2 a6 g4 f2 _1/4e2  | 
w:  SAZ  |  bı rak tın  be ni   | 
z2 b6 a8  | z2 c'6 ba gf g4  | g2 a6 g4 f4  | \
w:  gur bet   |  el ler *  *  *  de   |  be ni  gur bet   | 
z2 g2 e2 f2 b2 ag g4  | 
w:  el *  *  ler *  *  de    | 
(3c'bc' b4 z2 (3bab a4 z2  | (3aga g4 ed cd BA G4  | 
w:  SAZ  |  SAZ  | 
z2 g6 g8  | f2 c'6 g8  | f2 c'4 ac' g8  | \
w:  Git tin   |  bı rak tın   |  SAZ  | 
g2 a6 g4 f2 _1/4e2  | z2 b6 a8  | z2 c'6 ba gf g4  | 
w:  bı rak tın  be ni   |  gur bet   |  el ler *  *  *  de   | 
g2 a6 g4 f4  | z2 g2 e2 f2 b2 ag g4  | \
w:  be ni  gur bet   |  el *  *  ler *  *  de    | 
(3c'bc' b4 z2 (3bab a4 z2  | 
w:  SAZ  | 
(3aga g4 ed cd ef g4  | f2 g6 c4 g4  | \
w:  SAZ  |  A dım  SAZ  | 
z2 c'6 b4 a2 g2  | g2 c'4 b2 a2 b2 g4  | 
w:  Mec nûn  ol  |  du  Mec *  nûn   | 
g2 a4 z2 g4 f4  | g2 d6 fe dc B4  | z2 g4 d2 fd ec B4  | \
w:  ge zer  dil ler  |  de  dil ler *  *  *  de    |  SAZ  | 
c2 d4 z2 G4 g4  | 
w:  A dım  Mec nûn   | 
g2 c'4 b2 a2 b2 g4  | a2 f4 z2 gd ec B4  | \
w:  *  ol du  Mec *  nûn   |  ge zer  dil *  *  *  ler  | 
d2 A6 {c}B2 AG G4  | (3gfg f6 (3fef e6  | 
w:  de  dil *  ler *  *  de    |  SAZ  | 
(3ede d6 G2 B2 d4  | c2 d6 z4 g4  | d8 z4 z4  | \
w:   |  Bül bül  sus  |  muş   | 
z2 a6 g4 f2 _1/4e2  | {d}_1/4e8 z4 z4  | 
w:  sus muş  bül  |  *  bül   | 
z2 b6 a4 g2 f2  | c'2 c'b ba ag g4 a3/2g/ a2  | \
w:  renk  kal ma mış   |  se her *  *  *  *  *  de   | 
z2 a6 g4 f2 e2  | 
w:  renk  kal ma mış   | 
g2 e4 g2 g8  | (3c'bc' b4 z2 (3bab a4 z2  | \
w:  se her *  de    |  SAZ  | 
(3aga g4 ed cd ef g4  | 
w:   | 
f2 g6 c4 g4  | z2 c'6 b4 a2 g2  | g2 c'4 b2 a2 b2 g4  | \
w:  A dım  SAZ  |  Mec nûn  ol  |  du  Mec *  nûn   | 
g2 a4 z2 g4 f4  | g2 d6 fe dc B4  | 
w:  ge zer  dil ler  |  de  dil ler *  *  *  de    | 
z2 g4 d2 fd ec B4  | c2 d4 z2 G4 g4  | \
w:  SAZ  |  A dım  Mec nûn   | 
g2 c'4 b2 a2 b2 g4  | a2 f4 z2 gd ec B4  | 
w:  *  ol du  Mec *  nûn   |  ge zer  dil *  *  *  ler  | 
d2 A6 {c}B2 AG G4  | |


